X: 39609
T: Temperance
R: reel
M: 4/4
K: Gmajor
|:G2 GF GABc|dBeB dBAc|BEED EFGA|BGAF GFED|
G2 GF GABc|dBeB dBAc|BEED EFGA|BGAF G4:|
|:Beed e2ef|gfaf gfed|B^cde d2ef|gfaf gfed|
Beed e2ef|gfaf gfed|BEED EFGA|BGAF G4:|

